X: 1
T: Morsgrisar \"ar vi allihopa
%T: \"Aidin porsaat
%O: Sweden/Finland
M: 3/4
L: 1/8
K: C
[|"C"G2 GA GF | EF G2 E2 | "G7"DE F2 D2 | "C"CD E2 C2 |
%w: Por-sai-ta \"ai-din oom-me kaik-ki, oom-me kaik-ki, oom-me kaik-ki,
w: Mors-gri-sar \"a vi al-li-ho-pa, al-li-ho-pa, al-li-ho-pa,
| "C"G2 GA GF | EF G2 E2 | "G7"DE F2 D2 | "C"G2 C4    |
%w: por-sai-ta \"ai-din oom-me kaik-ki, oom-me kaik-ki, kaik-ki,
w: mors-gri-sar \"a vi al-li-ho-pa, al-li-ho-pa, du me',
| "Am"c2 "C"G3 F | "G7"(ED) "C"C4 | "F"c2 "C"G3 F | "G7"ED "C"C4 |]
%w: si-n\"a ja mi-*n\"a, si-n\"a ja mi-n\"a.
w: ja' me', \aa du* me', ja' me', \aa du* me'.
